!!!!SEGMENT: pl-kk--kk-i-277--001-008_anonim--rorate-caeli-agnus-dei.krn
!!!cenid: 16xx:1080
!!!COM: Anonim
!!!COM-rismid: pe30004985
!!!CDT:
!!!CNT:
!!!OPR: Rorate caeli
!!!OTL: Agnus Dei
!!!OMV: 008
!!!PDT:
!!!AGN: Sacred
!!!SMS-siglum: PL-Kk
!!!SMS-shelfmark: Kk.I.277
!!!SMS-shelfwork: 001-008 M
!!!SMS-variant:
!!!SMS-altvar:
!!!NIFC-rismid: 1001147186
!!!URL-scan: http://repozytorium.nifc.pl/skany/pl-kk-nut--i-277
!!!ONB-nifc: UWAGA: Rorate 1mi officii od str. 1. Części: 1. Rorate caeli (Rorate caeli + Benedixisti + Gloria patri), 2. Kyrie, 3. Tollite portas, 4. Alleluia, 5. Mittit ad virginem, 6. Ave Maria, 7. Sanctus, 8. Agnus Dei, 9. Ecce virgo, 10. Deo gratias
!!!key:
**kern	**text
*Itenor	*
*I"[Tenore]	*
*I'[T]	*
*clefC4	*
*k[]	*
*F:	*
*M2/1	*
*met(C)	*
=1-	=1-
1c	A-
*lig	*
1d	.
=2-	=2-
1c	.
*Xlig	*
*lig	*
1A	.
=3-	=3-
1F	.
*Xlig	*
*lig	*
1G	.
=4-	=4-
1A	.
*Xlig	*
0G	.
=5-	=5-
.	.
1F,<	-gn(us)
=6-	=6-
1B	De-
*lig	*
1A	.
=7-	=7-
1G	.
*Xlig	*
*lig	*
1A	.
=8-	=8-
1G	.
*Xlig	*
1F,<	-i
=9-	=9-
1F	qui
1A,<	.
=10-	=10-
1c	tol-
*lig	*
1d	.
=11-	=11-
!LO:SIC:v:t=custos d	!
1e	.
*Xlig	*
!LO:LB:g=original	!
*lig	*
1d	.
=12-	=12-
1B	.
*Xlig	*
1c,<	-lis
=13-	=13-
1f	pec-
1d	-ca-
=14-	=14-
1f	-ta
*lig	*
1e	mun-
=15-	=15-
1f	.
*Xlig	*
*lig	*
1e	.
=16-	=16-
1d	.
*Xlig	*
*lig	*
1c	.
=17-	=17-
1d	.
*Xlig	*
1c	di
=18-	=18-
1f	mi-
*lig	*
1f	-se-
=19-	=19-
1c	.
*Xlig	*
1A	-re-
=20-	=20-
1F,<	-re
1B	no-
=21-	=21-
*lig	*
1A	.
1G	.
*Xlig	*
=22-	=22-
*lig	*
1A	.
1G	.
*Xlig	*
=23-	=23-
0Fl;;	-bis,
!LO:LB:g=original	!
=24||	=24||
*M2/1	*
*met(C)	*
1f	A-
*lig	*
1f	-gnus
=25-	=25-
1e	.
*Xlig	*
*lig	*
1d	.
=26-	=26-
1f,<	.
*Xlig	*
1c	De-
=27-	=27-
*lig	*
1c	-i
1d	.
*Xlig	*
=28-	=28-
*lig	*
1e	.
1f,<	.
*Xlig	*
=29-	=29-
*lig	*
1f	qui
1c	.
*Xlig	*
=30-	=30-
*lig	*
1A	.
1F	.
*Xlig	*
=31-	=31-
1B	tol-
*lig	*
1A	.
=32-	=32-
1G	.
*Xlig	*
*lig	*
1A	.
=33-	=33-
1G	.
*Xlig	*
1F,<	-lis
=34-	=34-
1A	pec-
1c	-ca-
=35-	=35-
!LO:SIC:v:t=custos d	!
1c	-ta
!LO:LB:g=original	!
*lig	*
1d	mun-
=36-	=36-
1e	.
*Xlig	*
*lig	*
1d	.
=37-	=37-
1B	.
*Xlig	*
1c	-di
=38-	=38-
1f	Do-
*lig	*
1f	-na
=39-	=39-
1c	.
*Xlig	*
1A	no-
=40-	=40-
1F	-bis
1B	pa-
=41-	=41-
*lig	*
1A	.
1G	.
*Xlig	*
=42-	=42-
1A	.
0G	.
=43-	=43-
.	.
1G	.
=44-	=44-
0Gl;;	-cem
==	==
*-	*-
!!!RDF**kern: < = below
!!!RDF**kern: l = terminal long
!!!AIN: 1 tenor
!!!ENC: Marta Lawrence
!!!END: 2021-03-28
!!!ENC: Tomasz Grochalski
!!!END: 2021-03-14
